X: 27
T:Polka de Chavy
C:Frdric Paris
O:France
A:Bourbonnais
R:Polka
Z:Transcrit et/ou corrig par Michel BELLON - 2005-05-27
Z:Pour toute observation mailto:galouvielle@free.fr
M:2/4
L:1/8
K:C
Gc/2d/2 ee | d/2e/2f/2d/2 g2 | g/2f/2e/2d/2 cd/2e/2 |1 f/2e/2d/2c/2 BG :|2 f/2e/2d/2B/2 c2 ::
ge ed/2e/2 | fd de/2f/2 | ge ed/2e/2 |1 f/2e/2d/2B/2 c/2d/2e/2f/2 :|2 f/2e/2d/2B/2 c2 :|
%%footer $D   Galouvielle-MBe 2005 \nPolka France
